X:16
T: American Tune
C: Paul Simon
M:4/4
L:1/4
K:C clef=treble
"C"z2 | "C"z2 z E//G/G// |: "Dm7"A "C"G "G/B"F "Am" E/D/-  | "G"D3/ E/ "E7"z "G#"z/ B/ | "Am"/c/c/-c/B/- "E7"B c/A/- | "Am" A2 z "C" E/G/ | 
"Dm7" A "C"G/F/- "G/B"F "Am"E/D/- | "G"D G/E/ "E7"z "G#"z/ B/ | "Am"c e "E7" d/c/e/d/- | "Am"d/c//B// c z/ "C9" c/- c/c//c// | "F"c3/ B/"G"- B z/ G/ | 
"F"A3/ G/- "C"G G/G/ | "F" A "C" c "G" G "G#"F/E/-  | "Am" E2 "A7" z2 | "D7"z c/c/ "G7" B/c//d//- d/c//B// | "C"c "G7" B/A/- "D"A3/ G/ | 
"G"B "C"E "F"F "C"G | [M:2/4] "G" G D/E/- | [M:4/4] "E7 G#"E2 "Am"z "Dm7"A/c/ | "C"G3/ E/ "G6"E D |1 "C"C2 z/C/ E//G/G// :|2 "C"C2 z2 ||
 z2 z/ C//C// E/D//C// | E//D//C/- C3 | z3/ C/ E/F/G/G/- | "G"G d2 "G7" c/B/ | 
"Am"B/c/ A3/ "D#" A/ c/B//A// | "G7" A/B/ G3/ "C"A G//F// | "G"E/F/ D z/ C//C// E/D//C// | "C"E//D//C/- C3 | 
z2 E/F/G/G/- | "G"G f2 "G7"e/d/ | "Am"d/e/ c- "D#"c3//A// c/B//A// | "G7" A/B/ G3/ "C"A G//F// | "G"E/F/ D z/ C//C// E/D//C// | "C"E//D//C/- C3 ||
 "C"z2 z E//G/G// | "Dm7"A "C"G "G/B"F "Am" E/D/-  | "G"D3/ E/ "E7"z "G#"z/ B/ | "Am"/c/c/-c/B/- "E7"B c/A/- | "Am" A2 z "C" E/G/ | 
"Dm7" A "C"G/F/- "G/B"F "Am"E/D/- | "G"D G/E/ "E7"z "G#"z/ B/ | "Am"c e "E7" d/c/e/d/- | "Am"d/c//B// c z/ "C9" c/- c/c//c// | "F"c3/ B/"G"- B z/ G/ | 
"F"A3/ G/- "C"G G/G/ | "F" A "C" c "G" G "G#"F/E/-  | "Am" E2 "A7" z2 | "D7"z c/c/ "G7" B/c//d//- d/c//B// | "C"c "G7" B/A/- "D"A3/ G/ | 
"G"B "C"E "F"F "C"G | [M:2/4] "G" G D/E/- | [M:4/4] "E7 G#"E2 "Am"z "Dm7"A/c/ | "C"G3/ E/ "G6"E D | "C"C4 |]
W:Many's the time I've been mistaken
W:And many times confused
W:Yes, and I've often felt forsaken
W:And certainly misused
W:Oh, but I'm alright, I'm alright
W:I'm just weary to my bones
W:Still, you don't expect to be bright and bon vivant
W:So far away from home, so far away from home
W:
W:I don't know a soul who's not been battered
W:I don't have a friend who feels at ease
W:I don't know a dream that's not been shattered
W:Or driven to its knees
W:Oh, but it's alright, it's alright
W:For we lived so well so long
W:Still, when I think of the road we're traveling on
W:I wonder what's gone wrong
W:I can't help it, I wonder what's gone wrong
W:
W:And I dreamed I was dying
W:I dreamed that my soul rose unexpectedly
W:And looking back down at me
W:Smiled reassuringly
W:And I dreamed I was flying
W:And high up above my eyes could clearly see
W:The Statue of Liberty
W:Sailing away to sea
W:And I dreamed I was flying
W:
W:And we come on the ship they call The Mayflower
W:We come on the ship that sailed the moon
W:We come in the age's most uncertain hours
W:And sing an American tune
W:Oh, and it's alright, it's alright
W:You can't be forever blessed
W:Still, tomorrow's gonna be another working day
W:And I'm trying to get some rest
W:That's all I'm trying to get some rest
